actions/22/im-user-away.svg

<svg xmlns="http://www.w3.org/2000/svg" viewBox="0 0 22 22">
 <g transform="translate(-421.71429-525.79071)" style="fill:#fdbc4b">
  <path d="m432.71429 528.79032a3.99999 4.00003 0 0 0 -4 4 3.99999 4.00003 0 0 0 4 4 3.99999 4.00003 0 0 0 4 -4 3.99999 4.00003 0 0 0 -4 -4m0 1a3 3.00003 0 0 1 3 3 3 3.00003 0 0 1 -3 3 3 3.00003 0 0 1 -3 -3 3 3.00003 0 0 1 3 -3"/>
  <path d="m12 13a7.99995 8.00003 0 0 0 -7.927734 7h1.00781A6.99996 7.00003 0 0 1 12 14a6.99996 7.00003 0 0 1 1 .08008v-1.00977A7.99995 8.00003 0 0 0 12 13" transform="translate(420.71429 524.79071)"/>
  <path d="m440.71429 536.79071l-8 4 2 1 1 3 1-2 2 1z" style="fill-rule:evenodd"/>
 </g>
</svg>

<svg xmlns="http://www.w3.org/2000/svg" version="1.1" viewBox="0 0 22 22">
 <g style="fill:#fdbc4b" transform="translate(-421.71,-525.79)">
  <path d="M 432.71,528.79 A 4,4 0 0 0 428.71,532.79 4,4 0 0 0 432.71,536.79 4,4 0 0 0 436.71,532.79 4,4 0 0 0 432.71,528.79 M 432.71,529.79 A 3,3 0 0 1 435.71,532.79 3,3 0 0 1 432.71,535.79 3,3 0 0 1 429.71,532.79 3,3 0 0 1 432.71,529.79"/>
  <path d="M 12,13 A 8,8 0 0 0 4.0723,20 H 5.0801 A 7,7 0 0 1 12,14 7,7 0 0 1 13,14.08 V 13.07 A 8,8 0 0 0 12,13" transform="translate(420.71,524.79)"/>
  <path style="fill-rule:evenodd" d="M 440.71,536.79 432.71,540.79 434.71,541.79 435.71,544.79 436.71,542.79 438.71,543.79 Z"/>
 </g>
</svg>
